X: 3117
T: CA' THE WETHERS TO THE HILL
Q:"Strathspey."
R: Strathspey.
%R:strathspey
B: James Kerr "Merry Melodies" v.3 p.14 #117
Z: 2016 John Chambers <jc:trillian.mit.edu>
M: C
L: 1/8
K: A
uc |\
(A<a) a>g f>ea>c | (A<a) a>c B>cd>B |\
(A<a) a>g f>ea>c | (d<f) e>c (B2A) ::\
d |\
c>Ae>c A/A/A e2 |
d>fe>c B>cd>B |\
[1 c>Ae>c A/A/A e2 | (d<f) e>c (B2A) :|\
[2 A>ag>a f>ae>a | (d<f) e>c (B2A) |]

%%sep 1 1 500
%%sep 1 1 500

